public/img/tech-stack/radix.svg

<svg width="25" height="25" viewBox="0 0 25 25" fill="none" xmlns="http://www.w3.org/2000/svg">
<path d="M12 25C7.58173 25 4 21.4183 4 17C4 12.5817 7.58173 9 12 9V25Z" fill="white"/>
<path d="M12 0H4V8H12V0Z" fill="white"/>
<path d="M17 8C19.2091 8 21 6.20914 21 4C21 1.79086 19.2091 0 17 0C14.7909 0 13 1.79086 13 4C13 6.20914 14.7909 8 17 8Z" fill="white"/>
</svg>

<svg fill="none" xmlns="http://www.w3.org/2000/svg" viewBox="0 0 25 25"><path d="M12 25c-4.4183 0-8-3.5817-8-8s3.5817-8 8-8v16ZM12 0H4v8h8V0ZM17 8c2.2091 0 4-1.7909 4-4 0-2.2091-1.7909-4-4-4-2.2091 0-4 1.7909-4 4 0 2.2091 1.7909 4 4 4Z" fill="#fff"/></svg>
